tetrification/src/assets/images/logo.svg

<svg width="93" height="69" viewBox="0 0 93 69" fill="none" xmlns="http://www.w3.org/2000/svg">
<g filter="url(#filter0_d_307_736)">
<path d="M10.7062 4H84.827L78.15 12.0827H4L10.7062 4Z" fill="#E56D56"/>
<path d="M4 12.0828H78.15V36.6823H4V12.0828Z" fill="#F3B084"/>
<path d="M28.5996 36.6821H53.1991V61.2817H28.5996V36.6821Z" fill="#F3B084"/>
<path d="M53.1992 36.6821H59.7902V53.2264L53.1992 61.2817V36.6821Z" fill="#FFF8F6"/>
<path d="M78.1499 36.6822V12.0498L84.8269 4V28.5995L78.1499 36.6822Z" fill="#FFF8F6"/>
<path d="M4 12.0552V36.6685H28.7624M4 12.0552L78.1381 12.2044M4 12.0552L10.7127 4H85M78.1381 36.6685V12.2044M78.1381 36.6685L84.8508 28.6133L85 4M78.1381 36.6685H53.0774M78.1381 12.2044L85 4" stroke="#E56D56"/>
<path d="M28.6133 36.532V61.2819H53.2265M53.2265 61.2819V36.532M53.2265 61.2819L59.7901 53.2266V36.6686" stroke="#E56D56"/>
</g>
<defs>
<filter id="filter0_d_307_736" x="0.5" y="0.5" width="92.0029" height="68.2817" filterUnits="userSpaceOnUse" color-interpolation-filters="sRGB">
<feFlood flood-opacity="0" result="BackgroundImageFix"/>
<feColorMatrix in="SourceAlpha" type="matrix" values="0 0 0 0 0 0 0 0 0 0 0 0 0 0 0 0 0 0 127 0" result="hardAlpha"/>
<feOffset dx="2" dy="2"/>
<feGaussianBlur stdDeviation="2.5"/>
<feComposite in2="hardAlpha" operator="out"/>
<feColorMatrix type="matrix" values="0 0 0 0 0 0 0 0 0 0 0 0 0 0 0 0 0 0 0.11 0"/>
<feBlend mode="normal" in2="BackgroundImageFix" result="effect1_dropShadow_307_736"/>
<feBlend mode="normal" in="SourceGraphic" in2="effect1_dropShadow_307_736" result="shape"/>
</filter>
</defs>
</svg>

<svg width="93" height="69" fill="none" xmlns="http://www.w3.org/2000/svg"><g filter="url(#a)"><path d="M10.706 4h74.121l-6.677 8.083H4L10.706 4Z" fill="#E56D56"/><path d="M4 12.083h74.15v24.6H4v-24.6Z" fill="#F3B084"/><path d="M28.6 36.682h24.6v24.6H28.6v-24.6Z" fill="#F3B084"/><path d="M53.2 36.682h6.59v16.544l-6.59 8.056v-24.6ZM78.15 36.682V12.05L84.827 4v24.6l-6.677 8.082Z" fill="#FFF8F6"/><path d="M4 12.055V36.67h24.762M4 12.055l74.138.15M4 12.054 10.713 4H85m-6.862 32.669V12.204m0 24.465 6.713-8.056L85 4m-6.862 32.669h-25.06m25.06-24.465L85 4" stroke="#E56D56"/><path d="M28.613 36.532v24.75h24.614m0 0v-24.75m0 24.75 6.563-8.055V36.669" stroke="#E56D56"/></g><defs><filter id="a" x=".5" y=".5" width="92.003" height="68.282" filterUnits="userSpaceOnUse" color-interpolation-filters="sRGB"><feFlood flood-opacity="0" result="BackgroundImageFix"/><feColorMatrix in="SourceAlpha" values="0 0 0 0 0 0 0 0 0 0 0 0 0 0 0 0 0 0 127 0" result="hardAlpha"/><feOffset dx="2" dy="2"/><feGaussianBlur stdDeviation="2.5"/><feComposite in2="hardAlpha" operator="out"/><feColorMatrix values="0 0 0 0 0 0 0 0 0 0 0 0 0 0 0 0 0 0 0.11 0"/><feBlend in2="BackgroundImageFix" result="effect1_dropShadow_307_736"/><feBlend in="SourceGraphic" in2="effect1_dropShadow_307_736" result="shape"/></filter></defs></svg>
